Breeze Round Light/actions/24/document-swap.svg

<svg xmlns="http://www.w3.org/2000/svg" viewBox="0 0 24 24" width="24" height="24">
  <defs id="defs3051">
    <style type="text/css" id="current-color-scheme">.ColorScheme-Text {color:#fcfcfc;}</style>
  </defs>
  <g transform="translate(1,1)">
    <path style="fill:currentColor;fill-opacity:1;stroke:none" d="m 15,2.9980469 c -2.236457,0 -3.806441,0.0014 -5,0.00195 v 1 h 5 c 1.999998,0 2,2 2,2 h 1 c 0,0 -3e-6,-3.0019531 -3,-3.0019531 z M 8.2929688,3 5.5,5.7929688 4.7929688,6.5 5.5,7.2070312 8.2929688,10 9,9.2929688 6.7070312,7 H 12 V 6 H 11 10 6.7070312 L 9,3.7070312 Z M 13.707031,6 13,6.7070312 15.292969,9 H 10 v 1 h 1 1 3.292969 L 13,12.292969 13.707031,13 16.5,10.207031 17.207031,9.5 16.5,8.7929688 Z M 4,10 c 0,0 0,3 0,6 0,3 3,3 3,3 h 6 1 v -0.0098 L 14.007812,19 18,15.007812 v -0.0098 -1.40625 V 13 h -1 v 1 h -4 v 1 3 H 7 c 0,0 -2,0 -2,-2 0,-2 0,-6 0,-6 z" class="ColorScheme-Text"/>
  </g>
</svg>

<svg xmlns="http://www.w3.org/2000/svg" viewBox="0 0 24 24">
  <defs id="defs3051">
    <style type="text/css" id="current-color-scheme">
      .ColorScheme-Text {
        color:#232629;
      }
      </style>
  </defs><g transform="translate(1,1)">
 <path 
    style="fill:currentColor;fill-opacity:1;stroke:none" 
	d="M 4 2.9980469 L 4 3 L 8.2929688 3 L 10 3 L 10 4 L 17 4 L 17 6 L 18 6 L 18 2.9980469 L 17 2.9980469 L 5 2.9980469 L 4 2.9980469 z M 8.2929688 3 L 5.5 5.7929688 L 4.7929688 6.5 L 5.5 7.2070312 L 8.2929688 10 L 9 9.2929688 L 6.7070312 7 L 12 7 L 12 6 L 11 6 L 10 6 L 6.7070312 6 L 9 3.7070312 L 8.2929688 3 z M 13.707031 6 L 13 6.7070312 L 15.292969 9 L 10 9 L 10 10 L 11 10 L 12 10 L 15.292969 10 L 13 12.292969 L 13.707031 13 L 16.5 10.207031 L 17.207031 9.5 L 16.5 8.7929688 L 13.707031 6 z M 4 10 L 4 19 L 5 19 L 13 19 L 14 19 L 14 18.990234 L 14.007812 19 L 18 15.007812 L 18 14.998047 L 18 13.591797 L 18 13 L 17 13 L 17 14 L 13 14 L 13 15 L 13 18 L 5 18 L 5 10 L 4 10 z "
    class="ColorScheme-Text"
    />
</g></svg>
